**kern
*staff2
*tb48
=1-
*clefG2
*k[b-e-]
*M3/4
4d/
.
.
.
.
.
.
.
.
.
.
.
4r
.
.
.
.
.
.
.
.
.
.
.
4r
.
.
.
.
.
.
.
.
.
.
.
=2
*^
2.dd/	8r
.	.
.	.
.	.
.	.
.	.
.	8d\ 8g\
.	.
.	.
.	.
.	.
.	.
.	8d\L 8g\L
.	.
.	.
.	.
.	.
.	.
.	8d\J 8g\J
.	.
.	.
.	.
.	.
.	.
.	8d\J 8g\J
.	.
.	.
.	.
.	.
.	.
.	8d\J 8g\J
.	.
.	.
.	.
.	.
.	.
=3	=3
4dd/	8r
.	.
.	.
.	.
.	.
.	.
.	8f\ 8g\
.	.
.	.
.	.
.	.
.	.
4cc#/	8e-\L 8g\L
.	.
.	.
.	.
.	.
.	.
.	8e-\ 8g\
.	.
.	.
.	.
.	.
.	.
4r	8e-\J 8g\J
.	.
.	.
.	.
.	.
.	.
.	8e-\J 8a\J 8ccn\J
.	.
.	.
.	.
.	.
.	.
*v	*v
=4
8d/L 8g/L 8b-/L
.
.
.
.
.
8c/ 8f#/
.
.
.
.
.
8d/ 8g/
.
.
.
.
.
8d/
.
.
.
.
.
8g/
.
.
.
.
.
8b-/J
.
.
.
.
.
=5
!!linebreak:original
*^
2aa-/	8r
.	.
.	.
.	.
.	.
.	.
.	8a-\L 8b-\L
.	.
.	.
.	.
.	.
.	.
.	8a-\ 8b-\
.	.
.	.
.	.
.	.
.	.
.	8a-\ 8b-\
.	.
.	.
.	.
.	.
.	.
8r	8a-\ 8b-\
.	.
.	.
.	.
.	.
.	.
8aa-/	8a-\J 8dd\J
.	.
.	.
.	.
.	.
.	.
*v	*v
=6
8g\L 8ee-\L 8gg\L
.
.
.
.
.
8g\ 8ee-\
.
.
.
.
.
8g\ 8ee-\
.
.
.
.
.
8e-\ 8cc\ 8ee-\
.
.
.
.
.
8e-\J 8cc\J
.
.
.
.
.
8r
.
.
.
.
.
=7
8g/L 8cc/L
.
.
.
.
.
8f/ 8b-/
.
.
.
.
.
8e-/ 8a-/
.
.
.
.
.
8d/ 8g/
.
.
.
.
.
8c/ 8f#/
.
.
.
.
.
8c/J 8f#/J
.
.
.
.
.
=8
*^
4f#/	8e-\L
.	.
.	.
.	.
.	.
.	.
.	8e-\
.	.
.	.
.	.
.	.
.	.
4r	8d\ 8g\
.	.
.	.
.	.
.	.
.	.
.	8d\
.	.
.	.
.	.
.	.
.	.
4r	8g\J
.	.
.	.
.	.
.	.
.	.
.	8bn\J
.	.
.	.
.	.
.	.
.	.
*v	*v
=9
!!linebreak:original
*^
2.dd/	8r
.	.
.	.
.	.
.	.
.	.
.	8d\L 8g\L
.	.
.	.
.	.
.	.
.	.
.	8d\J 8g\J
.	.
.	.
.	.
.	.
.	.
.	8d\J 8g\J
.	.
.	.
.	.
.	.
.	.
.	8d\J 8g\J
.	.
.	.
.	.
.	.
.	.
.	8d\J 8g\J
.	.
.	.
.	.
.	.
.	.
=10	=10
2.gg/	8bn\L
.	.
.	.
.	.
.	.
.	.
.	8g\J
.	.
.	.
.	.
.	.
.	.
.	8cc\J
.	.
.	.
.	.
.	.
.	.
.	8g\J
.	.
.	.
.	.
.	.
.	.
.	8cc\J
.	.
.	.
.	.
.	.
.	.
.	8ee-\J
.	.
.	.
.	.
.	.
.	.
*v	*v
=11
8a-\L 8aa-\L
.
.
.
.
.
8ee-\
.
.
.
.
.
8cc\
.
.
.
.
.
8a-\J
.
.
.
.
.
4g\ 4gg\
.
.
.
.
.
.
.
.
.
.
.
=12
8f#/L 8ff#/L
.
.
.
.
.
8cc/
.
.
.
.
.
8an/
.
.
.
.
.
8f#/J
.
.
.
.
.
8ffn\
.
.
.
.
.
8r
.
.
.
.
.
=13
!!linebreak:original
8en/L 8een/L
.
.
.
.
.
8cc/
.
.
.
.
.
8g/
.
.
.
.
.
8e/J
.
.
.
.
.
4e-/ 4ee-/
.
.
.
.
.
.
.
.
.
.
.
=14
*^
4a-/	8r
.	.
.	.
.	.
.	.
.	.
.	8c\L 8e-\L
.	.
.	.
.	.
.	.
.	.
4g/	8Bn\ 8d\
.	.
.	.
.	.
.	.
.	.
.	8G\ 8B\
.	.
.	.
.	.
.	.
.	.
8r	8B\ 8d\
.	.
.	.
.	.
.	.
.	.
8g/	8B\J 8d\J
.	.
.	.
.	.
.	.
.	.
*v	*v
=15
8c/L 8g/L 8cc/L
.
.
.
.
.
8f#/
.
.
.
.
.
8g/
.
.
.
.
.
8g/ 8cc/
.
.
.
.
.
8a/ 8dd-/
.
.
.
.
.
8g/J
.
.
.
.
.
=16
8a-/L
.
.
.
.
.
16d/
.
.
16e-/JJ 16b-/JJ 16dd-/JJ
.
.
4f/ 4a-/ 4dd-/
.
.
.
.
.
.
.
.
.
.
.
4f/ 4a-/
.
.
.
.
.
.
.
.
.
.
.
=17
!!linebreak:original
8g-/L 8gg-/L
.
.
.
.
.
8ee-/
.
.
.
.
.
8cc/
.
.
.
.
.
8a-/
.
.
.
.
.
8c/ 8g-/
.
.
.
.
.
8e-/J
.
.
.
.
.
=18
4f/
.
.
.
.
.
.
.
.
.
.
.
12c/L 12e-/L 12g/L
.
.
.
12g/ 12cc/
.
.
.
12cc/ 12ee-/
.
.
.
12a-/ 12dd/
.
.
.
12g/ 12cc/
.
.
.
12f/J 12b-/J
.
.
.
=19
8e-/L 8a-/L
.
.
.
.
.
8c/ 8f#/
.
.
.
.
.
8d/ 8g/
.
.
.
.
.
8d/
.
.
.
.
.
8e-/ 8f#/ 8cc/
.
.
.
.
.
8c/J
.
.
.
.
.
=20
8d/L 8g/L 8bn/L
.
.
.
.
.
8G/ 8Bn/
.
.
.
.
.
8B/ 8d/
.
.
.
.
.
8d/ 8g/
.
.
.
.
.
8g/ 8b/
.
.
.
.
.
8g/J 8dd/J
.
.
.
.
.
=21
2r
.
.
.
.
.
.
.
.
.
.
.
.
.
.
.
.
.
.
.
.
.
.
.
==
*-
